icon/fa/scale-unbalanced.svg

<svg xmlns="http://www.w3.org/2000/svg" viewBox="0 0 640 512"><!--! Font Awesome Free 6.1.2 by @fontawesome - https://fontawesome.com License - https://fontawesome.com/license/free (Icons: CC BY 4.0, Fonts: SIL OFL 1.1, Code: MIT License) Copyright 2022 Fonticons, Inc.--><path d="M85 250.5C-2 424.7.9 416.4.9 432c-.897 44.1 56.35 80 127.1 80s128-35.88 128-79.1c0-16.12 1.375-8.752-85.12-181.5-17.58-36.1-68.08-36.3-85.88-.9zM55.96 416l71.98-143.1L200.09 416H55.96zM554.9 122.5c-17.62-35.25-68.08-35.37-85.83 0-87 174.2-85.04 165.9-85.04 181.5 0 44.12 57.25 79.1 128 79.1s127.1-35.87 127.1-79.1c-.03-16.1 2.27-8.7-84.23-181.5zM439.1 288l72.04-143.1L583.22 288H439.1zm56 160H352V153.3c20.83-9.117 36.72-26.93 43.78-48.77l126.3-42.11c16.77-5.594 25.83-23.72 20.23-40.48-5.578-16.73-23.62-25.86-40.48-20.23l-113.3 37.76C374.59 15.98 349.24.06 319.95.06c-44.18 0-79.1 35.82-79.1 80 0 2.961.559 5.771.871 8.648L117.9 129.7c-16.8 5.6-25.85 23.7-20.26 40.4 4.469 13.41 16.95 21.88 30.36 21.88 3.344 0 6.768-.519 10.13-1.644L273.8 145.1c4.4 3.2 8.3 6 14.2 8.2V496c0 8.8 7.2 16 16 16h223.1c8.838 0 16-7.164 16-15.1 0-27.4-20.6-48.9-48-48.9z"/></svg>

<svg xmlns="http://www.w3.org/2000/svg" viewBox="0 0 640 512" height="1em" width="1em">
<!--! Font Awesome Free 6.1.2 by @fontawesome - https://fontawesome.com License - https://fontawesome.com/license/free (Icons: CC BY 4.0, Fonts: SIL OFL 1.1, Code: MIT License) Copyright 2022 Fonticons, Inc.-->
  <path d="M85 250.5c-87 174.2-84.1 165.9-84.1 181.5C.0035 476.1 57.25 512 128 512s128-35.88 128-79.1c0-16.12 1.375-8.752-85.12-181.5C153.3 215.3 102.8 215.1 85 250.5zM55.96 416l71.98-143.1l72.15 143.1H55.96zM554.9 122.5c-17.62-35.25-68.08-35.37-85.83 0c-87 174.2-85.04 165.9-85.04 181.5c0 44.12 57.25 79.1 128 79.1s127.1-35.87 127.1-79.1C639.1 287.9 641.4 295.3 554.9 122.5zM439.1 288l72.04-143.1l72.08 143.1H439.1zM495.1 448h-143.1V153.3c20.83-9.117 36.72-26.93 43.78-48.77l126.3-42.11c16.77-5.594 25.83-23.72 20.23-40.48c-5.578-16.73-23.62-25.86-40.48-20.23l-113.3 37.76c-13.94-23.49-39.29-39.41-68.58-39.41c-44.18 0-79.1 35.82-79.1 80c0 2.961 .5587 5.771 .8712 8.648L117.9 129.7C101.1 135.3 92.05 153.4 97.64 170.1c4.469 13.41 16.95 21.88 30.36 21.88c3.344 0 6.768-.5186 10.13-1.644L273.8 145.1C278.2 148.3 282.1 151.1 288 153.3V496C288 504.8 295.2 512 304 512h223.1c8.838 0 16-7.164 16-15.1C543.1 469.5 522.5 448 495.1 448z"/>
</svg>
